src/actions/32/system-users.svg

<svg xmlns="http://www.w3.org/2000/svg" viewBox="0 0 32 32">
  <defs
     id="defs3051">
    <style
       type="text/css"
       id="current-color-scheme">
      .ColorScheme-Text {
        color:#2e3440;
      }
      </style>
  </defs>
  <path
     style="fill:currentColor;fill-opacity:1;stroke:none" 
     d="M 20.5,4 A 4.5,4.5 0 0 0 16,8.5 4.5,4.5 0 0 0 20.5,13 4.5,4.5 0 0 0 25,8.5 4.5,4.5 0 0 0 20.5,4 Z m 0,1 A 3.5,3.5 0 0 1 24,8.5 3.5,3.5 0 0 1 20.5,12 3.5,3.5 0 0 1 17,8.5 3.5,3.5 0 0 1 20.5,5 Z m -9,4 C 9.014719,9 7,11.01472 7,13.5 7,15.98528 9.014719,18 11.5,18 13.985281,18 16,15.98528 16,13.5 16,11.01472 13.985281,9 11.5,9 Z m 0,1 A 3.5,3.5 0 0 1 15,13.5 3.5,3.5 0 0 1 11.5,17 3.5,3.5 0 0 1 8,13.5 3.5,3.5 0 0 1 11.5,10 Z m 9,4 c -0.88285,0.003 -1.758266,0.17228 -2.585938,0.5 -0.06618,0.42368 -0.174132,0.83977 -0.322265,1.24219 C 18.494507,15.25488 19.490227,15.00077 20.5,15 c 3.589851,0 6.5,3.13401 6.5,7 l -8.341797,0 c 0.170323,0.32329 0.325499,0.65711 0.464844,1 L 28,23 28,22 c 0,-4.41828 -3.357864,-8 -7.5,-8 z m -9,5 C 7.357864,19 4,22.58172 4,27 l 0,1 15,0 0,-1 c 0,-4.41828 -3.357864,-8 -7.5,-8 z m 0,1 c 3.589851,0 6.5,3.13401 6.5,7 L 5,27 c 0,-3.86599 2.910149,-7 6.5,-7 z"
     class="ColorScheme-Text"
     />
</svg>

<svg viewBox="0 0 32 32" xmlns="http://www.w3.org/2000/svg">
 <defs>
  <style type="text/css">.ColorScheme-Text {
        color:#2e3440;
      }</style>
 </defs>
 <path class="ColorScheme-Text" d="m20.5 4a4.5 4.5 0 0 0-4.5 4.5 4.5 4.5 0 0 0 4.5 4.5 4.5 4.5 0 0 0 4.5-4.5 4.5 4.5 0 0 0-4.5-4.5zm0 1a3.5 3.5 0 0 1 3.5 3.5 3.5 3.5 0 0 1-3.5 3.5 3.5 3.5 0 0 1-3.5-3.5 3.5 3.5 0 0 1 3.5-3.5zm-9 4c-2.4853 0-4.5 2.0147-4.5 4.5s2.0147 4.5 4.5 4.5 4.5-2.0147 4.5-4.5-2.0147-4.5-4.5-4.5zm0 1a3.5 3.5 0 0 1 3.5 3.5 3.5 3.5 0 0 1-3.5 3.5 3.5 3.5 0 0 1-3.5-3.5 3.5 3.5 0 0 1 3.5-3.5zm9 4c-0.88285 3e-3 -1.7583 0.17228-2.5859 0.5-0.06618 0.42368-0.17413 0.83977-0.32226 1.2422 0.90271-0.48731 1.8984-0.74142 2.9082-0.74219 3.5899 0 6.5 3.134 6.5 7h-8.3418c0.17032 0.32329 0.3255 0.65711 0.46484 1h8.877v-1c0-4.4183-3.3579-8-7.5-8zm-9 5c-4.1421 0-7.5 3.5817-7.5 8v1h15v-1c0-4.4183-3.3579-8-7.5-8zm0 1c3.5899 0 6.5 3.134 6.5 7h-13c0-3.866 2.9101-7 6.5-7z" fill="currentColor"/>
</svg>
